X: 9610
T: Dawn On The Strand
R: hornpipe
M: 4/4
K: Fmajor
|:[FF,]2 Ac dcAc|[Cc]2 [Cc]2 defc|B2 GA Bded|dcBC EG ce|
fcAF B2cB|AFCA,G,2A,B,|CEGc BAGE|EFFE F2z2:|
|:AB|cF(3Acf a2 gf|cAFD B,2 CD|EGc=B dced|dc=Bc _BcAB|
cF(3Acf a2 gf|cAFD B,2 CD|EFGc BAGE|EFFE F2z2:|

